!!!OTL: Der Maedchenmoerder (Halewijn - Ulinger).
!!!OTL-incipit: Ess rytt eyn Ritter wol durch dz Ried,
!!!ARE: Europa, Mitteleuropa, Deutschland
!!!ODT: 1778
!!!YOR: 2, S. 84
!!    1778 gedruckt
!!!SCT: Q0041F
!!!YEM: Copyright 1995, estate of Helmut Schaffrath.
**kern	**text
*ICvox	*
*M6/8	*
*k[f#]	*
*G:	*
{8a	1._Eß
=1	=1
4a	rytt
8ee	eyn
8ee	Ritter
8ee	.
8dd#	wol
=2	=2
4ee	durch
8ff#	dʒ
4gg}	Ried,
{8ff#	er
=3	=3
4ee	fing
8ee	eß
(8dd	an
8cc)	.
8b	eyn
=4	=4
4ee	new-
16ddL	-es
16ccJ	.
4b}	Lyd,
{16eeL	gar
16ff#J	.
=5	=5
(8gg	ſchö-
8ff#)	.
8ee	-ne
4dd	tet
8ee	er
=6	=6
(4b	ſyn-
8a)	.
4g	-gen,
8r}	.
=7	=7
{(4dd	ſyn-
8cc)	.
(8b	-gen,
8cc)	.
8dd	dʒ
=8	=8
(8ee	Berg
8ff#)	.
8ee	vnndt
4dd	Tal
8ee	er-
=9	=9
4.cc	-klyn-
4b}	-gen.
==	==
!!!AGN: Ballade, Verfuehrung, Mord, Mordversuch bzw. Rache
!! Einschiebsel am Anfang der vierten Zeile.
!!!ONB: ESAC (Essen Associative Code) Database: BALLADE
!!!AMT: compound duple
!!!AIN: vox
!!!EED: Helmut Schaffrath
!!!EEV: 1.0
!!!source: Deutsche Volkslieder mit ihren Melodien. Herausgegeben vom Deutschen Volksliedarchiv. Zweiter Band Balladen. Berlin 1939.
!!!page: 84
!!!ENC: Anna Maria Matuszewska
!!!EEV: 2025/02/17
*-	*-
